X: 17666
T: Holly Bush, The
R: reel
M: 4/4
K: Dmixolydian
|:A2 FA DFAG|FAde fded|cG G2 EG G2|(3Bcd ed cAGc|
ADFA DFAG|FAde fded|cG G2 (3Bcd ed|cAGE D4:|
|:Add^c defg|adde dcAB|cG G2 (3Bcd eg|aged cAGc|
Add^c defg|adde dcAB|cG G2 (3Bcd ed|cAGE D4:|

